X:1
P: Lizzie Duncan's Fancy
C: by Ron Gonnella (c) 1979
C: arr. T. Traub 4-8-2007
R: Jig
M: 6/8
K: D
L: 1/8
A|"D"d2 A F2 A|def agf|"A"gag "D"fed|"Em"B2 e "A"cBA|"D"d2 A F2 A|"D"def agf|
"G"gfg "A"age|"D"fdd d2 :||: f |"D"a2 a fed |fag fed|"G"gab "D"afd|"E7"e2 d "A"cBA|
[1 "D"a2 a fed |fag fed|"Em"gfg "A"a2 g|"D"fdd d2 :| [2 "D"d2 A F2 A|"D"def agf|"Em"gfg "A"age|"D"fdd d2 |]
